X:35
T: BEI EINEM WIRTHE WUNDERMILD
N: B0522
O: Europa, Mitteleuropa, Deutschland
R: Wander - Lied
M: 4/4
L: 1/8
K: G
D | D2D2G2G2 | B3AG2z
G | E2E2F2F2 | G4D2z
B | B2B2d3B | B2ABc2z
A | A2A2B2G2 | A4G2z

